src/front_assets/svg/cart.svg

<svg width="17" height="22" viewBox="0 0 17 22" fill="none" xmlns="http://www.w3.org/2000/svg">
<path d="M16.9968 20.7822L15.5043 5.39378C15.4891 5.23837 15.4213 5.09454 15.314 4.98998C15.2068 4.88543 15.0675 4.82754 14.9232 4.82745H12.1175V4.13452C12.0965 3.11152 11.7064 2.13808 11.0307 1.42261C10.355 0.70714 9.44739 0.306519 8.50223 0.306519C7.55707 0.306519 6.64948 0.70714 5.97377 1.42261C5.29805 2.13808 4.90794 3.11152 4.88694 4.13452V4.82745H2.0795C1.93515 4.82754 1.79593 4.88543 1.68864 4.98998C1.58135 5.09454 1.51358 5.23837 1.49838 5.39378L0.00315996 20.7822C-0.00536349 20.8706 0.00340302 20.9599 0.0288888 21.0444C0.0543747 21.1289 0.0960085 21.2066 0.15108 21.2725C0.206152 21.3384 0.273428 21.3911 0.348528 21.427C0.423628 21.4629 0.504869 21.4812 0.586963 21.4809H16.4157C16.4976 21.4808 16.5785 21.4622 16.6533 21.4261C16.7281 21.39 16.795 21.3373 16.8498 21.2715C16.9046 21.2056 16.946 21.128 16.9713 21.0437C16.9966 20.9594 17.0053 20.8703 16.9968 20.7822ZM6.05454 4.13452C6.05454 3.43184 6.31238 2.75795 6.77132 2.26108C7.23027 1.76421 7.85274 1.48507 8.50179 1.48507C9.15084 1.48507 9.7733 1.76421 10.2322 2.26108C10.6912 2.75795 10.949 3.43184 10.949 4.13452V4.82745H6.05454V4.13452ZM1.23415 20.2158L2.60617 6.0925H4.88515V7.48705C4.88515 7.65494 4.94675 7.81595 5.0564 7.93466C5.16606 8.05337 5.31477 8.12006 5.46985 8.12006C5.62492 8.12006 5.77364 8.05337 5.88329 7.93466C5.99294 7.81595 6.05454 7.65494 6.05454 7.48705V6.0925H10.949V7.48705C10.949 7.65494 11.0106 7.81595 11.1203 7.93466C11.2299 8.05337 11.3787 8.12006 11.5337 8.12006C11.6888 8.12006 11.8375 8.05337 11.9472 7.93466C12.0568 7.81595 12.1184 7.65494 12.1184 7.48705V6.0925H14.3974L15.7676 20.2158H1.23415Z" fill="#222222"/>
</svg>

<svg xmlns="http://www.w3.org/2000/svg" width="17" height="22" fill="none"><path fill="#222" d="M16.997 20.782 15.504 5.394a.65.65 0 0 0-.19-.404.56.56 0 0 0-.39-.163h-2.806v-.692a4.08 4.08 0 0 0-1.087-2.712C10.355.707 9.447.307 8.502.307s-1.853.4-2.528 1.116a4.08 4.08 0 0 0-1.087 2.712v.692H2.08a.56.56 0 0 0-.391.163.65.65 0 0 0-.19.404L.002 20.782a.68.68 0 0 0 .148.49.6.6 0 0 0 .198.155.55.55 0 0 0 .238.054h15.829a.55.55 0 0 0 .237-.055.6.6 0 0 0 .197-.154.683.683 0 0 0 .147-.49M6.055 4.135c0-.703.257-1.377.716-1.874a2.36 2.36 0 0 1 1.73-.776c.65 0 1.272.28 1.731.776.46.497.717 1.17.717 1.874v.692H6.055zm-4.82 16.08L2.605 6.094h2.28v1.394a.66.66 0 0 0 .17.448c.11.118.259.185.414.185a.56.56 0 0 0 .413-.185.66.66 0 0 0 .172-.448V6.093h4.894v1.394a.66.66 0 0 0 .171.448c.11.118.259.185.414.185a.56.56 0 0 0 .413-.185.66.66 0 0 0 .171-.448V6.093h2.28l1.37 14.123z"/></svg>
